X: 23311
T: Lefts Of Man, The
R: hornpipe
M: 4/4
K: Aminor
|"Am"A^GAB cBcd|"C"eged e4|"G"dedc d3e|"Dm"fgfe defd|
"Am"cBAB cBcd|"C"eged e2cd|"E"e3f edcB|1 "Am"AGAB A2zE:|2 "Am"AGAB A2a^g||
|:"F"a2f2 fgaf|"C"edcd e4|"E"e3f edcB|"Am"A^GAB cdeg|
"F"a2f2 fgaf|"C"edcd e4|"E7"e3f edcB|1 "Am"AGAB A2ag:|2 "Am"AGAB A2 z2|

